!!!OTL: "Maria's Kirchgang " MARIA WOLLT ZUR KIRCHE GEHN
!!!ARE: Europa, Mitteleuropa, Deutschland, Rhein
!!!SCT: Z1019
!!!YEM: Copyright 1995, estate of Helmut Schaffrath.
**kern
*ICvox
*Ivox
*M3/4
*k[f#c#g#]
*A:
{4e
=1
8.a
16b
4cc#
8b
8dd
=2
8cc#
8b
4a
8r}
{8e
=3
8.a
16b
4cc#
8b
8dd
=4
8cc#
8b
4a
8r}
{8b
=5
8e
8g#
8a
8f#
8b
8cc#
=6
8a
8g#
4f#
8r}
{8b
=7
8e
8g#
8a
8f#
8b
8cc#
=8
8a
8g#
4f#}
==
!!!AGN: Romanze, Ballade, Maria, Tod, geistlich
!!!ONB: ESAC (Essen Associative Code) Database: ZUCCAL
!!!AMT: simple triple
!!!AIN: vox
!!!EED: Helmut Schaffrath
!!!EEV: 1.0
*-
